X:1
T: Rabbie Burns
C:
R:Strathspey
Q: 128
K:G
M:4/4
L:1/16
|:d2|GG3 d3G BA3 A3B|GG3 d3G B3g d4|eg3 B3d edcB A3B|Gg3 d3c BG3 G2d2|
GG3 d3G BA3 A3B|GG3 d3G B3g d4|eg3 B3d edcB A3B|Gg3 d3c BG3 G2d2|
gg3 g3b a3b a4|dg3 gb3 g3d ed3|eg3 B3d edcB A3B|Gg3 d3c BG3 G2d2|
gg3 g3b a3b a4|dg3 gb3 g3d ed3|eg3 B3d edcB A3B|Gg3 d3c BG3 G2:|
